dist/svgs/devui-icons/status/solved.svg

<?xml version="1.0" encoding="UTF-8"?>
<svg width="16px" height="16px" viewBox="0 0 16 16" version="1.1" xmlns="http://www.w3.org/2000/svg" xmlns:xlink="http://www.w3.org/1999/xlink">
    <title>已解决</title>
    <desc>Created with Sketch.</desc>
    <g id="图标" stroke="none" stroke-width="1" fill="none" fill-rule="evenodd">
        <g id="已解决">
            <path d="M2,2 L14,2 L14,4 L2,4 L2,2 Z M2,6 L10,6 L10,8 L2,8 L2,6 Z M2,10 L5,10 L5,12 L2,12 L2,10 Z M10,12 L14.4142136,7.58578644 L15.8284271,9 L10,14.8284271 L6.17157288,11 L7.58578644,9.58578644 L10,12 Z" id="形状" fill="#3DCCA6" fill-rule="nonzero"></path>
        </g>
    </g>
</svg>

<svg xmlns="http://www.w3.org/2000/svg" viewBox="0 0 16 16"><path d="M2 2h12v2H2V2zm0 4h8v2H2V6zm0 4h3v2H2v-2zm8 2l4.414-4.414L15.828 9 10 14.828 6.172 11l1.414-1.414L10 12z"/></svg>
